X:1
T:Title
%%score { ( 1 4 ) | ( 2 3 ) }
L:1/8
M:4/4
K:Eb
V:1 treble nm="Grand Piano"
V:4 treble 
V:2 bass 
V:3 bass 
V:1
 z4 z2[Q:1/4=106] GF | E2 e2 d2 c2 | B4 E2 G2 | BAGA [EG]2 [B,DA]2 |[M:3/4] [B,EG]6 | %5
[M:1/4] [B,G]F |[M:4/4] E2 e2 d2 c2 | B4 E2 G2 | BAGA F2 [DG]2 |[M:3/4] E6 |[M:1/4] G2 | %11
[M:4/4] [EG]2 [Gc]2 [Ge]2 [Fd]2 | [Ec]4 [EG]2 [EG]2 | B=AGA d2 c2 |[M:3/4] B4 c2 |[M:1/4] d2 | %16
[M:4/4] e2 dc B2 E2 | [EA]2 [DB]2 [B,EG]2 [G,E]2 | .[A,CG]2[K:bass] .[A,CE]2 .[F,CD]2 [A,B,D]2 | %19
[M:3/4] [G,B,E]6 |] %20
V:2
 z4 z2 [B,E][A,D] | [E,G,]2 [E,G,E]2 [A,E]2 [A,E]2 | [G,B,E]4 [G,B,]2 [E,B,E]2 | %3
 [A,C]2 [F,CE]2 B,2 B,,2 |[M:3/4] E,6 |[M:1/4] z A, |[M:4/4] [E,G,]2 [E,G,E]2 [A,E]2 [A,E]2 | %7
 [G,B,E]4 [G,B,]2 [E,B,E]2 | [A,C]2 [F,CE]2 [B,E]2 [B,,B,]2 |[M:3/4] [E,G,]6 |[M:1/4] [E,B,E]2 | %11
[M:4/4] [C,C]2 [E,C]2 [G,C]2 [G,=B,]2 | [C,C]4 [C,C]2 [C,C]2 | %13
 [F,CE]2 [F,CE]2[K:treble] [F,=A,F]2 [F,EF]2 |[M:3/4] F6 |[M:1/4] [A,B,F]2 | %16
[M:4/4][K:bass] [G,B,E]2 [A,E]2 [G,B,E]2 [G,B,]2 | [F,C]2 [B,,B,]2 E,2 E,2 | z F z F z G, B,,2 | %19
[M:3/4] E,6 |] %20
V:3
 z4 z2 E,2 | x8 | x8 | x8 |[M:3/4] x6 |[M:1/4] B,,2 |[M:4/4] x8 | x8 | x8 |[M:3/4] x6 |[M:1/4] x2 | %11
[M:4/4] x8 | x8 | x4[K:treble] x4 |[M:3/4] [B,D]4 [=A,C]2 |[M:1/4] x2 |[M:4/4][K:bass] x8 | x8 | %18
 A,,2 A,,2 B,,2 z2 |[M:3/4] x6 |] %20
V:4
 x8 | x8 | x8 | x8 |[M:3/4] x6 |[M:1/4] D2 |[M:4/4] x8 | x8 | x8 |[M:3/4] x6 |[M:1/4] x2 | %11
[M:4/4] x8 | x8 | x8 |[M:3/4] x6 |[M:1/4] x2 |[M:4/4] x8 | x8 | x2[K:bass] x6 |[M:3/4] x6 |] %20

